resources/material/entire-word.svg

<svg xmlns="http://www.w3.org/2000/svg" width="16" height="16" viewBox="0 0 16 16" fill="context-fill"
    fill-opacity="context-fill-opacity">
    <path d="M0 11H1V13H15V11H16V14H15H1H0V11Z" />
    <path
        d="M6.84048 11H5.95963V10.1406H5.93814C5.555 10.7995 4.99104 11.1289 4.24625 11.1289C3.69839 11.1289 3.26871 10.9839 2.95718 10.6938C2.64924 10.4038 2.49527 10.0189 2.49527 9.53906C2.49527 8.51139 3.10041 7.91341 4.3107 7.74512L5.95963 7.51416C5.95963 6.57959 5.58186 6.1123 4.82632 6.1123C4.16389 6.1123 3.56591 6.33789 3.03238 6.78906V5.88672C3.57307 5.54297 4.19612 5.37109 4.90152 5.37109C6.19416 5.37109 6.84048 6.05501 6.84048 7.42285V11ZM5.95963 8.21777L4.63297 8.40039C4.22476 8.45768 3.91682 8.55973 3.70914 8.70654C3.50145 8.84977 3.39761 9.10579 3.39761 9.47461C3.39761 9.74316 3.4925 9.96338 3.68228 10.1353C3.87564 10.3035 4.13166 10.3877 4.45035 10.3877C4.8872 10.3877 5.24706 10.2355 5.52994 9.93115C5.8164 9.62321 5.95963 9.2347 5.95963 8.76562V8.21777Z" />
    <path
        d="M9.3475 10.2051H9.32601V11H8.44515V2.85742H9.32601V6.4668H9.3475C9.78076 5.73633 10.4146 5.37109 11.2489 5.37109C11.9543 5.37109 12.5057 5.61816 12.9032 6.1123C13.3042 6.60286 13.5047 7.26172 13.5047 8.08887C13.5047 9.00911 13.2809 9.74674 12.8333 10.3018C12.3857 10.8532 11.7734 11.1289 10.9964 11.1289C10.2695 11.1289 9.71989 10.821 9.3475 10.2051ZM9.32601 7.98682V8.75488C9.32601 9.20964 9.47282 9.59635 9.76644 9.91504C10.0636 10.2301 10.4396 10.3877 10.8944 10.3877C11.4279 10.3877 11.8451 10.1836 12.1458 9.77539C12.4502 9.36719 12.6024 8.79964 12.6024 8.07275C12.6024 7.46045 12.4609 6.98063 12.1781 6.6333C11.8952 6.28597 11.512 6.1123 11.0286 6.1123C10.5166 6.1123 10.1048 6.29134 9.7933 6.64941C9.48177 7.00391 9.32601 7.44971 9.32601 7.98682Z" />
</svg>

<svg width="16" height="16" fill="#f4f4f7" fill-opacity="context-fill-opacity">
  <path d="M0 11h1v2h14v-2h1v3H0v-3Z"/>
  <path d="M6.84 11h-.88v-.86h-.022c-.383.66-.947.989-1.692.989-.548 0-.977-.145-1.289-.435-.308-.29-.462-.675-.462-1.155 0-1.028.605-1.626 1.816-1.794l1.649-.23c0-.935-.378-1.403-1.134-1.403-.662 0-1.26.226-1.794.677v-.902c.541-.344 1.164-.516 1.87-.516 1.292 0 1.938.684 1.938 2.052V11Zm-.88-2.782L4.633 8.4c-.408.058-.716.16-.924.307-.208.143-.311.399-.311.768 0 .268.095.488.284.66.194.168.45.253.768.253a1.41 1.41 0 0 0 1.08-.457c.286-.308.43-.696.43-1.165v-.548Zm3.388 1.987h-.022V11h-.88V2.857h.88v3.61h.021c.434-.73 1.068-1.096 1.902-1.096.705 0 1.257.247 1.654.741.401.49.602 1.15.602 1.977 0 .92-.224 1.658-.672 2.213-.447.551-1.06.827-1.837.827-.726 0-1.276-.308-1.649-.924Zm-.022-2.218v.768c0 .455.147.841.44 1.16.298.315.674.473 1.128.473.534 0 .951-.204 1.252-.613.304-.408.456-.975.456-1.702 0-.613-.141-1.092-.424-1.44-.283-.347-.666-.52-1.15-.52-.511 0-.923.178-1.235.536-.311.355-.467.8-.467 1.338Z"/>
</svg>
